!!!COA:	Josquin des Prez
!!!CDT:	~1450-1521/08/27
!!!OPR:	Missa Veni Sancte Spiritus
!!!ONM:	5
!!!OTL:	Agnus Dei
!!!AGN:	Mass; Agnus Dei
!!!SCT:	NJE 4.6
!!!SCA:	New Josquin Edition 4.6
!!!voices:	5
!!!voices-OPR:	5
**kern	**kern	**kern	**kern	**kern
*staff5	*staff4	*staff3	*staff2	*staff1
*Ivox	*Ivox	*Ivox	*Ivox	*Ivox
*I"Bassus	*I"Vagans	*I"Tenor	*I"Altus	*I"Superius
*I'B	*I'V	*I'T	*I'A	*I'S
*>[A,B]	*>[A,B]	*>[A,B]	*>[A,B]	*>[A,B]
*>A	*>A	*>A	*>A	*>A
*clefF4	*clefGv2	*clefGv2	*clefGv2	*clefG2
*k[]	*k[]	*k[]	*k[]	*k[]
*M2/1	*M2/1	*M2/1	*M2/1	*M2/1
*met(C|)	*met(C|)	*met(C|)	*met(C|)	*met(C|)
=1-	=1-	=1-	=1-	=1-
[0G	0r	0d	0r	0r
=2	=2	=2	=2	=2
1G]	0r	1B	0r	0g
[1C	.	[1c	.	.
=3	=3	=3	=3	=3
1C]	0r	2c\]	0r	1e
.	.	2A/	.	.
[1D	.	1A	.	[1f
=4	=4	=4	=4	=4
1D]	0r	2r	0r	2f/]
.	.	1B	.	2d/
1G	.	.	.	1d
.	.	2G/	.	.
=5	=5	=5	=5	=5
2D\	0r	1A	2r	1f
2F\	.	.	2d\	.
2E\	.	2G/	2e\	2g/
2D\	.	2F/	2f\	[2a/
=6	=6	=6	=6	=6
1E	0r	1G	2e\	4a/]
.	.	.	.	4g/
.	.	.	2c\	1g
1D	.	1A	1d	.
.	.	.	.	2f#i/
=7	=7	=7	=7	=7
0GG	0B	1G	1r	0g
.	.	1r	1d	.
=8	=8	=8	=8	=8
0C	1.c	1G	[0e	0r
.	.	[1c	.	.
.	4B\	.	.	.
.	4A/	.	.	.
=9	=9	=9	=9	=9
0E	2.G/	2c\]	0e]	0g
.	.	4B\	.	.
.	4A/	4A/	.	.
.	2B\	1G	.	.
.	[2G/	.	.	.
=10	=10	=10	=10	=10
0D	2G/]	0d	0f	0a
.	4F/	.	.	.
.	4E/	.	.	.
.	1F	.	.	.
=11	=11	=11	=11	=11
0E	0G	0B	[0e	0g
=12	=12	=12	=12	=12
1AA	0r	[0c	0e]	1a
[1A	.	.	.	[1cc
=13	=13	=13	=13	=13
2A\]	0A	1c]	1r	2cc\]
2G\	.	.	.	2b\
2F\	.	[1d	[1f	2a/
2E\	.	.	.	2g/
=14	=14	=14	=14	=14
0D	1.d	2d\]	2f\]	1a
.	.	4c\	2e\	.
.	.	4B\	.	.
.	.	1A	[1d	1f
.	2c\	.	.	.
=15	=15	=15	=15	=15
0E	1B	0G	2d\]	0g
.	.	.	4c\	.
.	.	.	4B\	.
.	1G	.	1c	.
=16	=16	=16	=16	=16
0D	1A	2r	2d\	1f
.	.	2.d\	1A	.
.	1F	.	.	2r
.	.	8c\L	.	.
.	.	8B\J	.	.
.	.	2A/	2d\	2f/
=17	=17	=17	=17	=17
0r	2E/	2G/	2e\	2g/
.	1D	1d	2.f\	2.a/
.	.	.	4d\	4b\
.	2A/	2c\	2e\	[2cc\
=18	=18	=18	=18	=18
1r	2F/	2A/	2f\	4cc\]
.	.	.	.	4b\
.	2E/	2B\	1g	4a/
.	.	.	.	4g/
2r	1A	2c\	.	1a
2D\	.	2d\	2f\	.
=19	=19	=19	=19	=19
2E\	1E	2.G/	2g\	[0g
2C/	.	.	2e\	.
.	.	4A/	.	.
2BB/	2r	2B\	2d\	.
[2C/	[2E/	[2G/	[2e\	.
=20	=20	=20	=20	=20
2C/]	4E/]	2G/]	2e\]	0g]
.	4F/	.	.	.
4BB/	2.G/	1c	4d\	.
4AA/	.	.	4c\	.
1GG	.	.	1d	.
.	4F/	.	.	.
.	2D/	2B\	.	.
=21	=21	=21	=21	=21
2AA/	2.A/	2.c\	0c	0r
2.A\	.	.	.	.
.	4B\	4B\	.	.
.	4c\	2A/	.	.
4G\	4B\	.	.	.
2E\	[2c\	2G/	.	.
=22	=22	=22	=22	=22
1F	4c\]	1A	1r	0r
.	4B\	.	.	.
.	2.A/	.	.	.
1E	.	1B	1e	.
.	4G/	.	.	.
.	4F/	.	.	.
.	8E/L	.	.	.
.	8D/J	.	.	.
=23	=23	=23	=23	=23
2AA/	2C/	0A	2e\	0a
1D	1F	.	2.d\	.
.	.	.	4c\	.
2AA/	2E/	.	[2c\	.
=24	=24	=24	=24	=24
1D	1F	0r	2c\]	1f
.	.	.	2B\	.
1C	1G	.	1c	1e
=25	=25	=25	=25	=25
1r	1F	1A	1d	1f
[1C	1E	1G	[1e	[1g
=26	=26	=26	=26	=26
1C]	1G	2c\	2e\]	1g]
.	.	2B\	2d\	.
1F	[1F	2A/	[1d	[1a
.	.	2G/	.	.
=27	=27	=27	=27	=27
1D	2F/]	1F	1d]	2a/]
.	2E/	.	.	2g/
1E	1C	1G	1c	[1g
=28	=28	=28	=28	=28
0D	1.F	0A	[0dl	1g]
.	.	.	.	1f#i
.	2D/	.	.	.
=29	=29	=29	=29	=29
0GGl	0Dl	0Gl	0d]	0gl
!!LO:LB:i:g=z
=30||	=30||	=30||	=30||	=30||
*>B	*>B	*>B	*>B	*>B
*clefF4	*clefGv2	*clefGv2	*clefGv2	*clefG2
*k[]	*k[]	*k[]	*k[]	*k[]
*M2/1	*M2/1	*M2/1	*M2/1	*M2/1
*met(C|)	*met(C|)	*met(C|)	*met(C|)	*met(C|)
!!section: Agnus Dei III
!!!OMD: Agnus Dei III
[0D	[0A	0r	1d	[0f
.	.	.	2A/	.
.	.	.	[2d\	.
=31	=31	=31	=31	=31
0D]	1A]	0r	2d\]	0f]
.	.	.	4c\	.
.	.	.	4B\	.
.	1d	.	1A	.
=32	=32	=32	=32	=32
[0C	[0G	1c	[0e	[0g
.	.	2G/	.	.
.	.	[2c\	.	.
=33	=33	=33	=33	=33
0C]	1G]	2c\]	0e]	0g]
.	.	4B\	.	.
.	.	4A/	.	.
.	[1c	1G	.	.
=34	=34	=34	=34	=34
0F	1c]	1F	[0f	0a
.	1A	[1c	.	.
=35	=35	=35	=35	=35
1.F	1.A	2c\]	0f]	1r
.	.	2B\	.	.
.	.	2A/	.	[1cc
2E\	2B\	2G/	.	.
=36	=36	=36	=36	=36
1C	1c	1A	1e	2cc\]
.	.	.	.	2b\
[1D	1F	1A	[1f	2a/
.	.	.	.	2g/
=37	=37	=37	=37	=37
1D]	1r	1F	2f\]	1a
.	.	.	1d	.
1E	1C	1G	.	[1g
.	.	.	2c\	.
=38	=38	=38	=38	=38
0D	2.F/	0A	0d	2g/]
.	.	.	.	4f#i/
.	4G/	.	.	4e/
.	2A/	.	.	1f#i
.	[2D/	.	.	.
=39	=39	=39	=39	=39
0GG	2D/]	0G	1r	1g
.	2.d\	.	.	.
.	.	.	[1g	1r
.	4c\	.	.	.
.	4B\	.	.	.
.	4A/	.	.	.
=40	=40	=40	=40	=40
0r	2G/	0r	2g\]	1.dd
.	2D/	.	2f\	.
.	1A	.	1e	.
.	.	.	.	2cc\
=41	=41	=41	=41	=41
0r	1r	0r	2d\	1b
.	.	.	2.g\	.
.	2r	.	.	1a
.	.	.	4f\	.
.	2D/	.	2f\	.
=42	=42	=42	=42	=42
1r	2E/	0r	2e\	2g/
.	2.F/	.	2c\	1a
2.D\	.	.	2.d\	.
.	4D/	.	.	.
.	[2d\	.	.	[2f/
4E\	.	.	8c\L	.
.	.	.	8B\J	.
=43	=43	=43	=43	=43
2F\	4d\]	0r	2A/	2f/]
.	4c\	.	.	.
2.G\	1B	.	1d	1d
4F\	.	.	.	.
2E\	4A/	.	2c\	[2g/
.	4G/	.	.	.
=44	=44	=44	=44	=44
1D	1A	0r	1d	2g/]
.	.	.	.	2f#i/
1G	[1G	.	1r	1g
=45	=45	=45	=45	=45
1r	1G]	0B	1d	0r
[1E	1r	.	[1g	.
=46	=46	=46	=46	=46
1E]	1G	1c	1g]	0r
1F	1A	[1d	1f	.
=47	=47	=47	=47	=47
1.G	2B\	2d\]	1.d	0r
.	2.G/	1B	.	.
.	4A/	.	.	.
[2E\	2B\	[2G/	[2g\	.
=48	=48	=48	=48	=48
4E\]	2.c\	2G/]	4g\]	0r
4C/	.	.	4f\	.
2C/	.	1c	4e\	.
.	4B\	.	4d\	.
1F	4A/	.	1c	.
.	4G/	.	.	.
.	[2F/	2A/	.	.
=49	=49	=49	=49	=49
2D\	2F/]	2B\	0r	0r
2E\	2G/	2c\	.	.
2F\	2A/	2d\	.	.
2G\	2B\	[2e\	.	.
=50	=50	=50	=50	=50
2.A\	2c\	4e\]	0r	0r
.	.	4d\	.	.
.	1A	4c\	.	.
4G\	.	4B\	.	.
4F\	.	2A/	.	.
4E\	.	.	.	.
2D\	2F/	[2d\	.	.
=51	=51	=51	=51	=51
1E	1G	2d\]	1r	2.g/
.	.	2c\	.	.
.	.	.	.	4a/
1D	1F	1d	2r	4b\
.	.	.	.	4cc\
.	.	.	2f\	2dd\
=52	=52	=52	=52	=52
2r	0r	0r	2e\	2g/
2D\	.	.	2f\	2.dd\
2E\	.	.	2g\	.
.	.	.	.	4cc\
2F\	.	.	4f\	[2cc\
.	.	.	4e\	.
=53	=53	=53	=53	=53
1G	1r	0r	1d	2cc\]
.	.	.	.	2b\
[1C	[1E	.	2.c\	1cc
.	.	.	4d\	.
=54	=54	=54	=54	=54
0C]	0E]	[0G	4e\	1r
.	.	.	4d\	.
.	.	.	2.e\	.
.	.	.	.	1cc
.	.	.	4d\	.
.	.	.	[2c\	.
=55	=55	=55	=55	=55
0GG	0D	0G]	2c\]	0dd
.	.	.	4B\	.
.	.	.	4A/	.
.	.	.	1B	.
=56	=56	=56	=56	=56
1C	1C	0E	0c	1ee
1AA	[1A	.	.	1cc
=57	=57	=57	=57	=57
[0D	0A]	[0F	0d	1a
.	.	.	.	[1dd
=58	=58	=58	=58	=58
0D]	0A	0F]	0f	2dd\]
.	.	.	.	2cc\
.	.	.	.	1a
=59	=59	=59	=59	=59
0GG	0G	0D	0g	0b
=60	=60	=60	=60	=60
[0D	1F	0F	1.a	1a
.	[1D	.	.	[1dd
.	.	.	2g\	.
=61	=61	=61	=61	=61
1D]	1D]	[0A	1f	1dd]
1AA	1E	.	1e	1cc
=62	=62	=62	=62	=62
1D	1D	1A]	1f	1a
1BB	[1D	[1G	1g	1b
=63	=63	=63	=63	=63
0AA	1D]	1G]	0a	1.cc
.	1C	1F#i	.	.
.	.	.	.	4b\
.	.	.	.	4a/
=64	=64	=64	=64	=64
0GG	2D/	[0Gl	2.d\	1b
.	2.G/	.	.	.
.	.	.	4e\	.
.	.	.	2d\	1dd
.	4F/	.	.	.
.	4E/	.	[2g\	.
.	4D/	.	.	.
=65	=65	=65	=65	=65
0C	1E	0G_	4g\]	0cc
.	.	.	4f\	.
.	.	.	4e\	.
.	.	.	4d\	.
.	1C	.	1e	.
=66	=66	=66	=66	=66
0GGl	0Dl	0G]	0dl	0bl
==	==	==	==	==
*-	*-	*-	*-	*-
!!!RDF**kern: l=long note in original notation
!!!RDF**kern: i=editorial accidental
!!!RDF**kern: V=start of tuplet marker
!!!RDF**kern: Z=end of tuplet marker
!!!ENC:	Will Watson 2011/05/03
!!!END:	2011/05/03/
!!!EED:	Jesse Rodin
!!!EEV:	2012/06/25/
!!attribution-level@Jos: 4 (questionable)
!!!ONB:	Translated from MusicXML and edited on 2012/06/25/ by Craig Sapp
!!muse2ps: T^@{OPR}^u^@{ONM}{. }@{OTL}^C^@{COA}?\n@{SCT}^i2I150v85,85,85,85,130Q16
